X:187
T:Griffin Mandolin Society
C:Tut Taylor
N:Transcribed by Mike Stangeland
R:bluegrass
L:1/8
Q:1/4=200
M:4/4
K:C
z2 E2 {G}A2 c2 |: "Am"{d}e2 ec e2 ec | e2 ec ef e2 | {c}"Dm"d2 dc d2 dc | d2 dc dc d/c/A | 
"E"E2 E^F ^GB ^c2 | e4 e2 e^d | ef e2 dc AG | "Am"A2 A^G Ac A=G |1 A2 A^G AG A2 :|2 A2 A^G AA zG, | 
"G"G2 [G2G,2] [BG][BG] [B2G2] | [dB][dB] [d2B2] [gd][gd] [g2d2] | "C"[cE][cE] [cE][AD] [dF][dF] [^d^F][dF] | 
[eG][eG] [eG][eG] [cE][cE] [cE]G, | "G"[G2G,2] [G2G,2] [BG][BG] [B2G2] | [dB][dB] [d2B2] [g3d3]E | 
"C"cE cE cB cd | "Em"e^d ed ed ed | "Am"e2 e^d ed ed | e2 e^d ed ed | "Dm"ed zd ed ed | 
ed ed ed ed | "E"e^d ed ed ed | e^d e2 e2 e2 | (3age z2 (3dcA z2 | "Am"dc z2 A4 | 
z8 | 


